X: 6
I: linebreak $N: FIXME CHORDS
T: Karobushka
C: Ukranian Traditional
K: A minor
M: 2/2
L: 1/4
"E"B3/c/ dc/B/ | "Am^3"c3/d/ ed/c/ | "E"B3/c/ de | "Am^3"cA A2 | "Dm"f3/g/ ag/f/ | "Am^3"ec/d/ ed/c/ | 
"E"B3/c/ de | "Am^3"cA A2 | "Dm"f2 ag/f/ | "Am^3"e/d/c/d/ e/e/d/c/ | "E"B3/c/ dc/B/ | "Am^3"cA Az :: 
"E"^g/ee/ g/ee/ | "Am^3"a/ee/ a/ee/ | "E"^g/ee/ g/ee/ | "Am^3"a/ee/ a/e/f/f/ | "Dm"a/f/a/f/ a/f/a/f/ | "Am^3"e/c/e/c/ e/c/e/c/ | 
"E"d/B/d/B/ d/B/d/B/ | "Am^3"A/c/e/c/ A/c/d/e/ | "Dm^3"f2 ag/f/ | "Am^3"e/d/c/d/ e/e/d/c/ | "E"B3/c/ dc/B/ | "Am^3"AA Az :| 


